packages/core/src/svgs/go.svg

<svg width="24" height="24" viewBox="0 0 24 24" fill="none" xmlns="http://www.w3.org/2000/svg">
<g clip-path="url(#clip0_31_10875)">
<path d="M0 0H24V24H0V0Z" fill="#1A172D"/>
<path d="M18.8572 12.0427C18.8572 7.01129 14.2587 4.94558 11.8415 5.15558C11.3958 5.15558 10.8858 5.45129 10.8858 5.98701C10.8858 6.52272 11.1987 6.86558 12.673 7.01129C13.9158 7.13129 15.0944 8.06987 15.2872 8.26272C15.5787 8.54558 15.6172 8.92701 15.4715 9.23558C15.3924 9.39462 15.27 9.52809 15.1183 9.62059C14.9667 9.71309 14.792 9.76088 14.6144 9.75844C14.2115 9.77129 14.0787 9.70272 13.483 9.32558C13.0075 8.97909 12.4294 8.80248 11.8415 8.82415C9.80582 8.88844 8.57153 10.4484 8.57153 12.047C8.60142 12.8956 8.95855 13.6998 9.56812 14.291C10.1777 14.8822 10.9924 15.2145 11.8415 15.2184C12.4431 15.216 13.0322 15.0458 13.5424 14.7271C14.0527 14.4084 14.464 13.9537 14.7301 13.4142C14.9187 13.0284 14.653 12.8656 14.4987 12.857H11.8415C11.5201 12.857 10.8858 12.7499 10.8858 12.0427C10.8858 11.3399 11.443 11.1427 11.7601 11.1427H16.3887C16.8001 11.1727 16.9458 11.4427 16.9672 11.597C16.9844 15.227 14.7301 16.3113 13.8772 16.6542C13.1658 16.9456 12.4372 17.1256 11.6615 17.1256C11.233 17.1256 10.8472 17.447 10.8901 18.0342C10.8972 18.2408 10.9788 18.4378 11.1198 18.589C11.2608 18.7403 11.4516 18.8354 11.6572 18.857C17.2072 18.857 18.8572 14.2927 18.8572 12.0427Z" fill="white"/>
<path d="M8.99997 7.71429C9.47335 7.71429 9.85711 7.33053 9.85711 6.85714C9.85711 6.38376 9.47335 6 8.99997 6C8.52658 6 8.14282 6.38376 8.14282 6.85714C8.14282 7.33053 8.52658 7.71429 8.99997 7.71429Z" fill="#008ACB"/>
<path d="M6.85714 9.85735C7.33053 9.85735 7.71429 9.4736 7.71429 9.00021C7.71429 8.52682 7.33053 8.14307 6.85714 8.14307C6.38376 8.14307 6 8.52682 6 9.00021C6 9.4736 6.38376 9.85735 6.85714 9.85735Z" fill="#008ACB"/>
<path d="M5.99997 12.8574C6.47335 12.8574 6.85711 12.4736 6.85711 12.0002C6.85711 11.5268 6.47335 11.1431 5.99997 11.1431C5.52658 11.1431 5.14282 11.5268 5.14282 12.0002C5.14282 12.4736 5.52658 12.8574 5.99997 12.8574Z" fill="#008ACB"/>
<path d="M6.85714 15.8574C7.33053 15.8574 7.71429 15.4736 7.71429 15.0002C7.71429 14.5268 7.33053 14.1431 6.85714 14.1431C6.38376 14.1431 6 14.5268 6 15.0002C6 15.4736 6.38376 15.8574 6.85714 15.8574Z" fill="#008ACB"/>
<path d="M8.99997 17.9999C9.47335 17.9999 9.85711 17.6162 9.85711 17.1428C9.85711 16.6694 9.47335 16.2856 8.99997 16.2856C8.52658 16.2856 8.14282 16.6694 8.14282 17.1428C8.14282 17.6162 8.52658 17.9999 8.99997 17.9999Z" fill="#008ACB"/>
</g>
<defs>
<clipPath id="clip0_31_10875">
<rect width="24" height="24" fill="white"/>
</clipPath>
</defs>
</svg>

<svg xmlns="http://www.w3.org/2000/svg" width="24" height="24" fill="none" viewBox="0 0 24 24"><g clip-path="url(#a)"><path fill="#1A172D" d="M0 0h24v24H0z"/><path fill="#fff" d="M18.857 12.043c0-5.032-4.598-7.097-7.015-6.887-.446 0-.956.295-.956.831s.313.879 1.787 1.024c1.243.12 2.421 1.059 2.614 1.252.292.283.33.664.184.973a.94.94 0 0 1-.857.522c-.403.013-.535-.055-1.131-.432a2.62 2.62 0 0 0-1.642-.502c-2.035.064-3.27 1.624-3.27 3.223a3.287 3.287 0 0 0 3.27 3.171 3.24 3.24 0 0 0 2.89-1.804c.188-.386-.078-.548-.232-.557H11.84c-.32 0-.955-.107-.955-.814 0-.703.557-.9.874-.9h4.629c.411.03.557.3.578.454.017 3.63-2.237 4.714-3.09 5.057-.711.292-1.44.472-2.216.472-.428 0-.814.321-.77.908a.86.86 0 0 0 .766.823c5.55 0 7.2-4.564 7.2-6.814"/><path fill="#008ACB" d="M9 7.714A.857.857 0 1 0 9 6a.857.857 0 0 0 0 1.714M6.857 9.857a.857.857 0 1 0 0-1.714.857.857 0 0 0 0 1.714M6 12.857a.857.857 0 1 0 0-1.714.857.857 0 0 0 0 1.714M6.857 15.857a.857.857 0 1 0 0-1.714.857.857 0 0 0 0 1.714M9 18a.857.857 0 1 0 0-1.714A.857.857 0 0 0 9 18"/></g><defs><clipPath id="a"><path fill="#fff" d="M0 0h24v24H0z"/></clipPath></defs></svg>
